X: 1034
T: The Wind that Shakes the Barley
B: jims roots
M:4/4
L:1/8
R: reel
Q: 1/4=100
K:D
V:1 
%O:Reel
%G:reel
%Q:120
|:"D"A2 AB AFED|"G"B2 BA BcdB|"D"A2 AB AFED|"G"gfed Bcde:|
|: "D"f2 fd "G"g2 ge | "D"f2 fd "A"edBA | "D"f2 fd "G"g2 ge | "D"afed "A"Bcde |
"D"f2 fd "G"g2 ge | "D"f2 fd "A"edBA | "D"defg afba |[1 "G"gfed "(A)"BcdB :|
V:2 "G"gfed "(A)"BcdB | "D"A8|
% abcbook-tune_id 6298c29736203b82d1c35034


% abcbook-boost 0
% abcbook-tablature 
% abcbook-transpose 
% abcbook-lastupdated 1654178457049
% abcbook-soundfonts 
% abcbook-repeats 1


